X: 1833
T: Yellow John - 2nd Setting
R: jig
%S: s:2 b:13(6+7)
B: O'Neill's 1850 #1833
Z: Bob Safranek, rjs@gsp.org
N: Slightly compacted via repeats and multiple endings [JC]
M: 6/8
L: 1/8
K: D
(d/e/) \
| fed AFA | BGB AFA | fed AFA |[1,3 Bgf e2 :|[2,4 B2c d2 :: (d/e/) | f2a e2a |
| ded cBA | f2a e2a | gfg a2a || bgb afa | geg fde | fed AFA | B2c d2 :|
